src/assets/images/ALINA_HUZ--white.svg

<svg width="164" height="12" viewBox="0 0 164 12" fill="none" xmlns="http://www.w3.org/2000/svg">
<g clip-path="url(#clip0_39_133)">
<path fill-rule="evenodd" clip-rule="evenodd" d="M6.27146 9.81489L5.13836 11.4316H0.136475L7.93942 0.764893H10.4822V1.88156V3.80707L8.02366 7.31489H12.9609H16.6518H17.832L20.8716 11.4316H15.8697L14.7274 9.81489H6.27146ZM26.8767 8.26489V0.764893H22.3295V11.4316H37.4807V8.26489H26.8767ZM44.308 0.764893H39.7609V11.4316H44.308V0.764893ZM63.6775 7.25095V0.764893H68.2247V11.4316H63.6775L51.673 5.06237V11.4316H47.1258V0.764893H51.673L63.6775 7.25095ZM75.8111 9.81489L74.678 11.4316H69.6762L77.4791 0.764893H80.0219V1.88156V3.80707L77.5633 7.31489H82.5005H86.1915H87.3717L90.4113 11.4316H85.4094L84.267 9.81489H75.8111ZM102.047 7.61489V11.4316H97.4998V0.764893H102.047V4.44823H113.688V0.764893H118.235V11.4316H113.688V7.61489H102.047ZM141.103 8.51489C141.32 8.14174 141.477 7.72507 141.572 7.26489H136.523C136.487 7.30515 136.449 7.34404 136.41 7.38156C135.938 7.84823 135.258 8.17046 134.373 8.34823C133.488 8.51489 132.445 8.59823 131.245 8.59823C130.008 8.59823 128.947 8.51489 128.062 8.34823C127.189 8.17046 126.516 7.84823 126.043 7.38156C125.57 6.91489 125.334 6.23713 125.334 5.34823V0.764893H120.786V6.09823C120.786 7.04266 120.968 7.84823 121.332 8.51489C121.708 9.17046 122.223 9.71489 122.878 10.1482C123.533 10.5705 124.297 10.8982 125.17 11.1316C126.055 11.3649 127.013 11.526 128.044 11.6149C129.074 11.7149 130.142 11.7649 131.245 11.7649C132.288 11.7649 133.312 11.7149 134.319 11.6149C135.337 11.526 136.289 11.3649 137.174 11.1316C138.059 10.8982 138.842 10.5705 139.521 10.1482C140.2 9.71489 140.727 9.17046 141.103 8.51489ZM150.602 0.764893H144.233V3.93156H150.602H155.718L150.602 5.86156L144.233 8.26489V11.4316H150.602H157.057H163.513V8.26489H157.057H152.075L157.057 6.37718L163.513 3.93156V0.764893H157.057H150.602Z" fill="white"/>
</g>
<defs>
<clipPath id="clip0_39_133">
<rect width="163.698" height="11" fill="white" transform="translate(0 0.764893)"/>
</clipPath>
</defs>
</svg>

<svg xmlns="http://www.w3.org/2000/svg" width="164" height="12" fill="none" xmlns:v="https://vecta.io/nano"><g clip-path="url(#A)"><path fill-rule="evenodd" d="M6.271 9.815l-1.133 1.617H.136L7.939.765h2.543v1.117 1.926L8.024 7.315h4.937 3.691 1.18l3.04 4.117H15.87l-1.142-1.617H6.271zm20.605-1.55v-7.5H22.33v10.667h15.151V8.265H26.877zm17.431-7.5h-4.547v10.667h4.547V.765zm19.37 6.486V.765h4.547v10.667h-4.547L51.673 5.062v6.369h-4.547V.765h4.547l12.005 6.486zm12.134 2.564l-1.133 1.617h-5.002L77.479.765h2.543v1.117 1.926l-2.459 3.508h4.937 3.691 1.18l3.04 4.117h-5.002l-1.142-1.617h-8.456zm26.236-2.2v3.817H97.5V.765h4.547v3.683h11.641V.765h4.547v10.667h-4.547V7.615h-11.641zm39.056.9a4.13 4.13 0 0 0 .469-1.25h-5.049l-.113.117c-.472.467-1.152.789-2.037.967-.885.167-1.928.25-3.128.25-1.237 0-2.298-.083-3.183-.25-.873-.178-1.546-.5-2.019-.967s-.709-1.144-.709-2.033V.765h-4.548v5.333c0 .944.182 1.75.546 2.417a4.81 4.81 0 0 0 1.546 1.633c.655.422 1.419.75 2.292.983.885.233 1.843.394 2.874.483 1.03.1 2.098.15 3.201.15l3.074-.15a17 17 0 0 0 2.855-.483c.885-.233 1.668-.561 2.347-.983.679-.433 1.206-.978 1.582-1.633zm9.499-7.75h-6.369v3.167h6.369 5.116l-5.116 1.93-6.369 2.403v3.167h6.369 6.455 6.456V8.265h-6.456-4.982l4.982-1.888 6.456-2.446V.765h-6.456-6.455z" fill="#fff"/></g><defs><clipPath id="A"><path fill="#fff" transform="translate(0 .765)" d="M0 0h163.698v11H0z"/></clipPath></defs></svg>
